chrome/icons/highlight.svg

<svg height="16" viewBox="64 0 896 1024" width="16" xmlns="http://www.w3.org/2000/svg" xmlns:xlink="http://www.w3.org/1999/xlink">
  <path d="M288,1024C279,1024 271.417,1020.92 265.25,1014.75C259.083,1008.58 256,1001 256,992L256,576C238.333,576 221.833,572.75 206.5,566.25C191.167,559.75 177.75,550.833 166.25,539.5C154.75,528.167 145.583,514.833 138.75,499.5C131.917,484.167 128.333,467.833 128,450.5C127.667,446.5 127.5,442.5 127.5,438.5C127.5,434.5 127.5,430.5 127.5,426.5C127.5,418.5 127.583,410.5 127.75,402.5C127.917,394.5 128,386.5 128,378.5C118.333,375.167 109.583,370.5 101.75,364.5C93.9167,358.5 87.1667,351.5 81.5,343.5C75.8333,335.5 71.5,326.833 68.5,317.5C65.5,308.167 64,298.333 64,288L64,32C64,23.3334 67.1667,15.8334 73.5,9.5C79.8333,3.16669 87.3333,0 96,0C104.667,0 112.167,3.16669 118.5,9.5C124.833,15.8334 128,23.3334 128,32L128,288C128,296.667 131.167,304.167 137.5,310.5C143.833,316.833 151.333,320 160,320L864,320C872.667,320 880.167,316.833 886.5,310.5C892.833,304.167 896,296.667 896,288L896,32C896,23.3334 899.167,15.8334 905.5,9.5C911.833,3.16669 919.333,0 928,0C936.667,0 944.167,3.16669 950.5,9.5C956.833,15.8334 960,23.3334 960,32L960,288C960,298.333 958.5,308.167 955.5,317.5C952.5,326.833 948.167,335.5 942.5,343.5C936.833,351.5 930.083,358.5 922.25,364.5C914.417,370.5 905.667,375.167 896,378.5L896,450.5C896,466.5 892.583,482.083 885.75,497.25C878.917,512.417 869.833,525.833 858.5,537.5C847.167,549.167 834.083,558.5 819.25,565.5C804.417,572.5 788.833,576 772.5,576L768,576L768,708.5C768,720.5 766.333,732.25 763,743.75C759.667,755.25 754.917,766 748.75,776C742.583,786 735.167,795 726.5,803C717.833,811 708,817.667 697,823L302.5,1020.5C298.167,1022.83 293.333,1024 288,1024ZM768,512C777,512 785.333,510.333 793,507C800.667,503.667 807.417,499.083 813.25,493.25C819.083,487.417 823.667,480.667 827,473C830.333,465.333 832,457 832,448L832,384L192,384L192,448C192,457 193.667,465.417 197,473.25C200.333,481.083 204.833,487.833 210.5,493.5C216.167,499.167 222.917,503.667 230.75,507C238.583,510.333 247,512 256,512ZM704,708.5L704,576L320,576L320,940L668.5,766C679.5,760.333 688.167,752.417 694.5,742.25C700.833,732.083 704,720.833 704,708.5Z" fill="context-fill" fill-opacity="context-fill-opacity">
  </path>
</svg>

<svg xmlns="http://www.w3.org/2000/svg" width="16" height="16" viewBox="64 0 896 1024"><path fill="context-fill" fill-opacity="context-fill-opacity" d="M288 1024c-9 0-16.583-3.08-22.75-9.25S256 1001 256 992V576q-26.5 0-49.5-9.75t-40.25-26.75-27.5-40-10.75-49q-.5-6-.5-12v-12q0-12 .25-24t.25-24q-14.5-5-26.25-14t-20.25-21-13-26T64 288V32q0-13 9.5-22.5T96 0t22.5 9.5T128 32v256q0 13 9.5 22.5T160 320h704q13 0 22.5-9.5T896 288V32q0-13 9.5-22.5T928 0t22.5 9.5T960 32v256q0 15.5-4.5 29.5t-13 26-20.25 21-26.25 14v72q0 24-10.25 46.75T858.5 537.5t-39.25 28T772.5 576H768v132.5q0 18-5 35.25T748.75 776t-22.25 27-29.5 20l-394.5 197.5c-4.333 2.33-9.167 3.5-14.5 3.5m480-512q13.5 0 25-5t20.25-13.75T827 473t5-25v-64H192v64q0 13.5 5 25.25t13.5 20.25 20.25 13.5 25.25 5Zm-64 196.5V576H320v364l348.5-174q16.5-8.5 26-23.75t9.5-33.75"/></svg>
